X:1
T:Far From Home
R:Reel
M:C|
K:G
"G"GEDE G2GA|B2BA Bcd2|GEDE G2GB|"D"AGAB "C"AG E2|
"G"GEDE G2GA|B2BA Bcd2|"C"edef aedc|"D"BGAF "G"G4:|
|:"Em"g3e "D"f3d|"C"edef "G"edB2|gedB G2 GB|"D"AGAB "C"AGE2|
"G"GEDE G2GA|B2BA Bcd2|"C"edef gedc|"D"BGAF "G"G4|]
